X:451
T: Zum Abschied (166), S. 361
N: T0339
O: Luxemburg
S: Singendes Volk, Esch-Alzette, 1937 posth.]
N: Altrier/Rippig, fff Katharina Weiler, hhh Nikolaus Mller, 1908
R: Abschieds- und Wanderlieder, Heimatlieder,  Liebeslied]
M: 2/4
L: 1/8
K: G
 | D2D2 | G2GG | E2GE | D2
D2 | G4 | A4 | B2z2 |
D2D2 | c2dc | B2A2 | B2z2 |
G2B2 | A2A2 | F2EF | G2z2

@@@ Tune index: 8505
